X:397
T:Salvation
C:Simon Bradley 
N:Transcribed by Mikel Black
R:bluegrass
L:1/8
Q:1/4=214
M:4/4
K:A
z8 |: "A"EG AE GA EG | Ae cA BA FA | "Bm"B3c "C#m"BA FA | "D"BA cA "E"BA FA | 
"A"EG AE GA EG | Ae cA BA FA | "D"c3A Bc AF |1 E2 AB "A"cB AF :|2 E2 AB "A"cB A2 | 
|: "A"Bc eB ce Bc | ef {g}fe dB Ae | "D"f3g fe ce | "E"ag ae fe cB | "A"cd ec "Bm"de fg | 
"C#m"ag ae "D"fe ce | "Bm"fe cA "D"B2 AB | "E"cB A"A"F EF A2 :| 


